img/icons/villa.svg

<svg width="24" height="24" viewBox="0 0 24 24" fill="none" xmlns="http://www.w3.org/2000/svg">
<path d="M7 20.9999H4C3.45 20.9999 3 20.5499 3 19.9999V8.68994C3 8.26994 3.25 7.89994 3.64 7.74994L14.64 3.51994C14.7921 3.46126 14.9561 3.44064 15.118 3.45986C15.2798 3.47909 15.4345 3.53758 15.5686 3.63025C15.7027 3.72292 15.8121 3.84696 15.8873 3.99156C15.9624 4.13617 16.0012 4.29696 16 4.45994V9.99994H8C7.45 9.99994 7 10.4499 7 10.9999V20.9999ZM17 11.9999H10C9.45 11.9999 9 12.4499 9 12.9999V19.9999C9 20.5499 9.45 20.9999 10 20.9999H14V16.9999C14 16.4499 14.45 15.9999 15 15.9999C15.55 15.9999 16 16.4499 16 16.9999V20.9999H20C20.55 20.9999 21 20.5499 21 19.9999V11.9999C21 10.8999 20.1 9.99994 19 9.99994C17.9 9.99994 17 10.8999 17 11.9999Z" fill="#888B97"/>
</svg>

<svg width="24" height="24" fill="none" xmlns="http://www.w3.org/2000/svg"><path d="M7 21H4c-.55 0-1-.45-1-1V8.69c0-.42.25-.79.64-.94l11-4.23a1 1 0 011.36.94V10H8c-.55 0-1 .45-1 1v10zm10-9h-7c-.55 0-1 .45-1 1v7c0 .55.45 1 1 1h4v-4c0-.55.45-1 1-1s1 .45 1 1v4h4c.55 0 1-.45 1-1v-8c0-1.1-.9-2-2-2s-2 .9-2 2z" fill="#888B97"/></svg>
